dist/img/partners/15.svg

<svg width="80" height="80" viewBox="0 0 80 80" fill="none" xmlns="http://www.w3.org/2000/svg">
<g clip-path="url(#clip0_216_906)">
<path fill-rule="evenodd" clip-rule="evenodd" d="M16.768 53.5911V56.3606L16.7048 56.4177C13.9831 56.9986 11.3002 57.6826 8.66219 58.4659C7.75057 56.9114 6.9509 55.2832 6.27438 53.5929C4.65141 49.5384 3.73586 45.1251 3.67969 40.502H3.56324L3.58036 40.4858C3.5785 40.3351 3.6769 40.2034 3.6769 40.0526C3.6769 19.9192 19.998 3.59773 40.1315 3.59773C60.2648 3.59773 76.5857 19.9192 76.5857 40.0526C76.5857 40.2027 76.5843 40.3524 76.5829 40.502C76.5257 45.1344 75.5781 49.5394 73.9305 53.5911H73.929C73.1933 55.4019 72.3181 57.1395 71.321 58.7953C68.7433 58.0018 66.1505 57.3098 63.4943 56.7086V53.5911V50.3662C63.4943 50.3662 63.9581 49.1485 65.4081 49.1485V40.502V40.4521C63.9581 40.4521 63.4943 39.2347 63.4943 39.2347V31.3501H59.9005V40.502V42.829L49.9481 42.8048L50.6638 40.502L52.7571 33.7684H49.5157L47.909 38.7045L47.8948 30.0377H50.6433C52.2529 30.0673 54.0119 29.4768 55.3233 28.433C56.9038 27.1811 57.6871 25.0349 57.6871 23.1268C57.6871 19.9963 55.9452 16.7763 51.9505 16.7763H44.4585V39.1361L47.7786 39.1058L47.2965 40.502L46.4928 42.829L44.8276 42.7884L43.8975 40.502L41.0768 33.5654H37.9632L35.1043 40.502L34.1453 42.829H32.4633L31.716 40.502L31.2039 38.9053C36.2145 37.4525 37.0169 29.5625 33.0367 27.4192C35.4001 26.6758 38.0339 16.7763 29.3129 16.7763H22.5753V39.1361H27.9412L28.37 40.502L29.1004 42.829H20.3625V40.502V31.3501H16.768V39.2347C16.768 39.2347 16.3041 40.4521 14.8545 40.4521L14.795 40.6011L14.8545 40.6454V49.1485C16.3041 49.1485 16.768 50.3662 16.768 50.3662V53.5911ZM2.78218 53.5911C8.31881 68.8626 22.9513 79.77 40.1315 79.77C57.3114 79.77 71.9433 68.8626 77.4805 53.5948L75.7048 53.5929L77.4805 53.5911C78.9648 49.5016 79.7957 45.0954 79.8462 40.502C79.8481 40.3524 79.849 40.2025 79.849 40.0526C79.849 18.1168 62.0671 0.334877 40.1315 0.334877C18.1955 0.334877 0.413691 18.1168 0.413691 40.0526C0.413691 40.2012 0.414621 40.3494 0.415737 40.4999V40.502L0.316406 40.4832L0.416295 40.5425C0.471912 45.1216 1.30209 49.5139 2.78218 53.5911ZM59.8395 53.5911L59.819 55.9393C53.2357 54.6861 46.4409 54.0305 39.4924 54.0305C32.946 54.0305 26.582 54.6119 20.3462 55.7232L20.3502 53.5911L20.3625 46.7715L30.3147 46.7369L31.2807 49.8435H34.5897L35.8261 46.7715L43.1404 46.7572L44.4503 49.8435H47.7595L48.7543 46.7715H59.9005L59.8395 53.5911ZM40.5191 40.502L41.5242 42.8695L37.6226 42.887L38.6361 40.502L39.578 38.2844L40.5191 40.502ZM25.9384 25.8096V20.0558H27.8763C29.7842 20.1154 31.8205 20.192 31.8205 22.0835C31.8205 26.4058 27.9713 25.663 26.7135 25.8096H25.9384ZM47.8838 20.0558H49.7919C52.1471 20.0558 54.3105 20.4435 54.3105 23.0073C54.3105 25.7201 51.9381 26.6268 50.12 26.6268H47.8838V20.0558ZM26.907 35.7758L26.2831 33.7684H29.5246L30.0283 35.3158C31.151 34.8753 32.1583 34.1015 32.1583 32.3859C32.1583 29.9711 30.1419 29.4839 27.5484 29.4839H25.9384V35.8569H26.833L26.907 35.7758ZM69.2695 61.9627C62.6176 70.7955 52.041 76.5072 40.1315 76.5072C28.0815 76.5072 17.3971 70.6604 10.7602 61.65C19.8676 58.8928 29.4851 57.3939 39.4924 57.3939C49.8471 57.3939 59.8314 58.9812 69.2152 61.9259L69.2695 61.9627Z" fill="#154281"/>
</g>
<defs>
<clipPath id="clip0_216_906">
<rect width="80" height="80" fill="white"/>
</clipPath>
</defs>
</svg>

<svg width="80" height="80" viewBox="0 0 80 80" fill="none" xmlns="http://www.w3.org/2000/svg"><g clip-path="url(#clip0_216_906)"><path fill-rule="evenodd" clip-rule="evenodd" d="M16.768 53.591v2.77l-.063.057c-2.722.58-5.405 1.265-8.043 2.048a36.289 36.289 0 01-2.388-4.873A36.338 36.338 0 013.68 40.502h-.117l.017-.016c-.002-.15.097-.283.097-.433 0-20.134 16.321-36.455 36.454-36.455 20.134 0 36.455 16.321 36.455 36.455 0 .15-.002.3-.003.449a35.821 35.821 0 01-2.653 13.09h-.001a37.317 37.317 0 01-2.608 5.203 106.189 106.189 0 00-7.827-2.086v-6.343s.464-1.218 1.914-1.218v-8.695c-1.45 0-1.914-1.217-1.914-1.217V31.35h-3.593v11.48l-9.953-.024.716-2.303 2.093-6.734h-3.241l-1.607 4.937-.014-8.667h2.748c1.61.03 3.369-.561 4.68-1.605 1.58-1.252 2.364-3.398 2.364-5.306 0-3.13-1.742-6.35-5.736-6.35h-7.492v22.36l3.32-.031-.483 1.396-.803 2.327-1.665-.04-.93-2.287-2.821-6.937h-3.114l-2.859 6.937-.959 2.327h-1.682l-.747-2.327-.512-1.597c5.01-1.453 5.813-9.343 1.833-11.486 2.363-.743 4.997-10.643-3.724-10.643h-6.738v22.36h5.366l.429 1.366.73 2.327h-8.738V31.35h-3.594v7.885s-.464 1.217-1.914 1.217l-.059.15.06.043v8.503a2.041 2.041 0 011.913 1.218v3.225zm-13.986 0C8.32 68.863 22.952 79.77 40.132 79.77s31.81-10.907 37.348-26.175l-1.776-.002 1.776-.002a39.575 39.575 0 002.368-13.538C79.849 18.117 62.067.335 40.131.335 18.196.335.415 18.117.415 40.053c0 .148 0 .296.002.447v.002l-.1-.019.1.06c.056 4.579.886 8.97 2.366 13.048zm57.058 0l-.021 2.348a108.62 108.62 0 00-20.327-1.908c-6.546 0-12.91.58-19.146 1.692l.004-2.132.012-6.82 9.953-.034.966 3.106h3.309l1.236-3.072 7.314-.014 1.31 3.087h3.31l.994-3.072h11.147l-.062 6.82zM40.52 40.502l1.004 2.367-3.901.018 1.013-2.385.942-2.218.941 2.218zM25.937 25.81v-5.754h1.938c1.908.06 3.944.136 3.944 2.027 0 4.323-3.849 3.58-5.107 3.727h-.775zm21.946-5.754h1.908c2.355 0 4.518.387 4.518 2.951 0 2.713-2.372 3.62-4.19 3.62h-2.236v-6.571zm-20.977 15.72l-.624-2.008h3.242l.503 1.548c1.123-.44 2.13-1.215 2.13-2.93 0-2.415-2.016-2.902-4.61-2.902h-1.61v6.373h.895l.074-.081zm42.362 26.187C62.617 70.796 52.04 76.507 40.13 76.507c-12.05 0-22.734-5.847-29.37-14.857a98.873 98.873 0 0128.731-4.256 99.114 99.114 0 0129.723 4.532l.054.037z" fill="#154281"/></g><defs><clipPath id="clip0_216_906"><path fill="#fff" d="M0 0h80v80H0z"/></clipPath></defs></svg>
